X:333
T:Air for Linda
C:Nigel Gatherer
Z:Nigel Gatherer
L:1/8
M:4/4
K:Bm
FA|B2 c2 dBAF|Ddcd eAAe|fBFB cAAf|gBed cAFA|
B2 c2 dBAF|Ddcd eAAe|fBdf egfe|dBBA B2:|
ag|fgfe d2 fd|efed cdec|dBBA FB (3Bcd|cAAf eAce|
fgfe da a2|efed ca a2|dBcA FBce|dBBA B2:|]
<end>
<start>
